X: 6648
T: Cease Not To Row, Brave Boys
R: jig
M: 6/8
K: Aminor
E|:CEE {FED}E2G|EGF EDC|CEE {FED}E2c|{Bc}B>A^G A2c|
CEE {FED}E2G|EGF EDC|CEEE ce|1 {e}dcB A2c:|2 {e}dcB A2e||
ceg ceg|c/B/c/d/e/f/ gec|cec' a/g/f/e/d/c/|deg {ba^g}a2e|
ceg ceg|c/B/c/d/e/f/ gec|f/e/d/c/B/A/ G/F/E/D/C|DEG A2e|
ceg ceg|c/B/c/d/e/f/ gec|cec' a/g/f/e/d/c/|deg {ba^g}a2e|
ceg ece|dBd cde|CEE EAc|{Bc}B>A^G A2c||

